src/lib/packages/icons/src/assets/filled/credit-card-slash.svg

<svg width="24" height="24" viewBox="0 0 24 24" fill="none" xmlns="http://www.w3.org/2000/svg">
<path d="M17.25 10.75H21V16C21 17.66 19.66 19 18 19H9.71994C9.45994 19 9.31998 18.68 9.50998 18.49L17.25 10.75ZM20.55 7.44998L18.75 9.24997H21V7.99997C21 7.86997 21 7.74998 20.99 7.62998C20.97 7.43998 20.73 7.27998 20.55 7.44998ZM14.31 10.75L3.53 21.53C3.38 21.68 3.18997 21.75 2.99997 21.75C2.80997 21.75 2.61994 21.68 2.46994 21.53C2.17994 21.24 2.17994 20.7599 2.46994 20.4699L4.29996 18.64C3.42996 18.2 2.99997 17.32 2.99997 16V10.75H12.19H13.25H14.31ZM7.18997 15.75L8.68997 14.25H6.99997C6.58597 14.25 6.24997 14.586 6.24997 15C6.24997 15.414 6.58597 15.75 6.99997 15.75H7.18997ZM21.53 2.46994C21.24 2.17994 20.7599 2.17994 20.4699 2.46994L17.94 4.99997H5.99997C3.99997 4.99997 2.99997 5.99997 2.99997 7.99997V9.24997H15.81L21.53 3.53C21.82 3.24 21.82 2.75994 21.53 2.46994Z" fill="currentColor"/>
</svg>

<svg xmlns="http://www.w3.org/2000/svg" width="24" height="24" fill="none"><path fill="currentColor" d="M17.25 10.75H21V16c0 1.66-1.34 3-3 3H9.72a.3.3 0 0 1-.21-.51l7.74-7.74Zm3.3-3.3-1.8 1.8H21V8c0-.13 0-.25-.01-.37-.02-.19-.26-.35-.44-.18Zm-6.24 3.3L3.53 21.53c-.15.15-.34.22-.53.22s-.38-.07-.53-.22a.755.755 0 0 1 0-1.06l1.83-1.83C3.43 18.2 3 17.32 3 16v-5.25h11.31Zm-7.12 5 1.5-1.5H7a.75.75 0 0 0 0 1.5h.19ZM21.53 2.47a.755.755 0 0 0-1.06 0L17.94 5H6C4 5 3 6 3 8v1.25h12.81l5.72-5.72c.29-.29.29-.77 0-1.06Z"/></svg>
